X: 39212
T: Sylvain Barou's
R: polka
M: 2/4
K: Amajor
g|aec Ace|def ecA|EGB Ace|B^df ec/d/e|
fef efe|fe^d edc|^dcB cBA|c/B/AG AGF|
EGB =dcB|Ace fec|fff cBc|eee fga|
EGB dcB|Ace fec|fff fga|ecB AGA|
EGB dcB|Ace fec|fff c2c|eee fga|
EGB dcB|Ace fec|fff fff|ggg gfg|a3A2||

